X: 1
T:Ceilidh Lines  "http://freespace.virgin.net/michael.clarke2/index.html
M:C|
L:1/8
Q:80
C:P/M A. Reese - Q.O.H.
S:Hornpipe
K:HP
|: | {g}e3/4g/4{ag}ae3/4d/4{g}B3/4e/4|
{A}e3/4B/4{g}d3/4e/4{g}B3/4d/4{g}B/4{d}A3/4|
{g}e3/4g/4{ag}ae3/4d/4{g}B3/4e/4|  !
{A}e3/4B/4{g}d3/4B/4{g}A3/4{d}A/4{e}A3/4{d}B/4| |
{g}e3/4g/4{ag}ae3/4d/4{g}B3/4e/4|
{A}e3/4B/4{g}d3/4e/4{g}B3/4d/4{g}e3/4g/4|  !
{ef}ed3/4e/4{a}g3/4e/4{a}g3/4a/4|
e3/4B/4{g}d3/4B/4{gAGAG}A2:| |:
{g}e3/4g/4|  !
{ag}aA3/4a/4{g}a3/4A/4{a}g3/4a/4|
{g}a3/4A/4{a}g3/4e/4{g}B3/4d/4{g}e3/4g/4|
{ag}aA3/4a/4{g}a3/4A/4{a}g3/4a/4|  !
e3/4B/4{g}d3/4B/4{gAGAG}A{g}e3/4g/4| |
{ag}aA3/4a/4{g}a3/4A/4{a}g3/4a/4|
{g}a3/4A/4{a}g3/4e/4{g}B3/4d/4{g}e3/4g/4|  !
{ef}ed3/4e/4{a}g3/4e/4{a}g3/4a/4|
e3/4B/4{g}d3/4B/4{gAGAG}A2:| |:
{gef}e|  !
{g}A3/4e/4{A}e3/4d/4{gef}e{g}A3/4e/4|
{g}A3/4e/4{A}e3/4B/4{g}d3/4B/4{g}d3/4g/4|
{a}A3/4e/4{A}e3/4d/4{gef}e{g}A3/4e/4|  !
{A}e3/4B/4{g}d3/4B/4{g}A3/4{d}A/4{e}A3/4e/4| |
{g}A3/4e/4{A}e3/4d/4{gef}e{g}A3/4e/4|
{g}A3/4e/4{A}e3/4B/4{g}d3/4B/4{g}d3/4g/4|  !
{ef}ed3/4e/4{a}g3/4e/4{a}g3/4a/4|
e3/4B/4{g}d3/4B/4{gAGAG}A2:| |:
{gef}e|  !
{g}A3/4a/4{g}a3/4A/4{a}g3/4A/4{a}g3/4a/4|
{g}a3/4A/4{a}g3/4e/4{g}B3/4d/4{g}e3/4g/4|
{a}A3/4a/4{g}a3/4A/4{a}g3/4A/4{a}g3/4a/4|  !
e3/4B/4{g}d3/4B/4{gAGAG}A{gef}e|1 |
{g}A3/4a/4{g}a3/4A/4{a}g3/4A/4{a}g3/4a/4|
{g}a3/4A/4{a}g3/4e/4{g}B3/4d/4{g}e3/4g/4|  !
{ef}ed3/4e/4{a}g3/4e/4{a}g3/4a/4|
e3/4B/4{g}d3/4B/4{gAGAG}A2:|
